T: Trip To Dingle, The
M: 2/4
L: 1/8
K: Gmaj
FG/A/ cc | cd A2- | Af dc | d/e/d/c/ AF |DE/D/ CD | FG Ac | cd AG | F2 F- :|de/d/ cd | fa A2 | GA/G/ GF | G/A/G/F/ DC |1 de/d/ cd | fa A2 | G/A/G/F/ AG | F2 F- :|2 DE/D/ CD | FG Ac | cd AG | F2- F ||GA/B/ dd | de B2- | Bg ed | e/f/e/d/ BG |EF/E/ DE | GA Bd | de BA | G2 G- :|ef/e/ de | gb B2 | AB/A/ AG | A/B/A/G/ ED |1 ef/e/ de | gb B2 | A/B/A/G/ BA | G2 G- :|2 EF/E/ DE | GA Bd | de BA | G2- G ||
